src/assets/icons/tags.svg

<svg width="24" height="24" viewBox="0 0 24 24" fill="none" xmlns="http://www.w3.org/2000/svg">
<path d="M9.2998 5.29601C10.2103 4.56764 11.5045 4.56772 12.415 5.29601L15.0293 7.38781C15.6207 7.86092 15.9648 8.57772 15.9648 9.33507V15.9054C15.9646 17.0413 15.0442 17.9619 13.9082 17.962H7.80762C6.67155 17.962 5.75023 17.0414 5.75 15.9054V9.33507C5.75 8.57772 6.09416 7.86092 6.68555 7.38781L9.2998 5.29601Z" stroke="#314158" stroke-width="1.5"/>
<circle cx="10.8572" cy="11.5572" r="1.62153" stroke="#314158" stroke-width="1.5"/>
</svg>

<svg fill="none" viewBox="0 0 24 24"><path stroke="currentColor" stroke-width="1.5" d="M9.3 5.296a2.494 2.494 0 0 1 3.115 0l2.614 2.092c.592.473.936 1.19.936 1.947v6.57c0 1.136-.92 2.057-2.057 2.057h-6.1a2.057 2.057 0 0 1-2.058-2.057v-6.57c0-.757.344-1.474.936-1.947z"/><circle cx="10.857" cy="11.557" r="1.622" stroke="currentColor" stroke-width="1.5"/></svg>
